X:1
T:Bessy Bell and Mary Gray
M:6/8
L:1/8
K:C
 A2 d d2 d| c2 d A2 G| A2 d d2 d| c3 d2 A| AAd d2 d| c2 d A2 A| AAA G2 F|\
 D3 A3|
